X: 1
T: Charles O'Connor
M: 6/8
L: 1/8
R: jig
K: Dmaj
|:A|d2A d2A|BAG FGA|Bcd ecA|dfa a2g|
fef BAB|ede AGA|dcB ABc|dAF D2:|
|:A|FAD FAD|BGB AFD|FAD FAD|GBe c2A|
f2f faf|faf fdB|e2e eae|eae ecA|
dcB AFE|FAd f2e|dcB ABc|dAF D2:|
